X:131
U: ~ = !turn!
%%topmargin 3cm
T:Molloy's Favorite
B:Traditional Irish Fiddle Tunes. Randy Miller and Jack Perron.
Z:Transcribed by Ralph Palmer
R:Jig
M:6/8
L:1/8
K:G
~g3 edc | ~B3 EFG | ~F3 DFA | dAF ~F3 |!
~g3 edc | ~B3 EFG | B/2c/2dB AGF | [1 GEE E2 e/2f/2 :| [2 GEE E2 B |]!
|: efe Beg | bgf gfe | ~d3 FAd | ~f3 agf |!
|: efe Beg | bgf gfe | B/2c/2dB AGF | [1 GEE E2 B :| [2 GEE E2 e/2f/2 |]
